X:322
T:Charley the Prayermaster
T:Cowboy Jig
D:Wick S.C.D., The Sound of the North (1970)
Z:Nigel Gatherer
L:1/8
M:6/8
K:A
B|AFE A2 B|cff ecB|AFE ABc|dcB AFE|
AFE A2 B|cff ecB|AFE A2 B|1cAA A2:|2cAA Ace|
f2 e f2 e|faf fec|e2 c e2 c|eaf ece|
f2 e f2 g|agf ecB|AFE A2 B|1cAA Ace:|2cAA A2|
<end>
<start>
